X:152
T:Linnen Hall THO4.152
M:6/8
L:1/8
Z:vmp. Peter Dunk 2010/11.from a transcription by Fynn Titford-Mock 2007
B:Thompson's Compleat Collection of 200 Favourite Country Dances Volume IV.
Q:3/8=110
K:A
A2 A B2 B|c2 d dcA|F2 F d2 c|BcA GFE|\
A2 A B2 B|c2 d dcA|Fdc BAG|A3HA,3:|
e2 e f2 f|e2 a ecA|e2 e f2 f|ecA B3|\
e2 e f2 f|e2 a a2 g|fag fe^d|e3"_Da Capo"E3|]
